X: 22949
T: Larry's Favourite
R: reel
M: 4/4
K: Adorian
|:EAAG A2Bd|eA3 BAGE|G2DG EGDE|GABd edBG|
EAAG A2Bd|eA3 BAGE|GABd gedB|AcBG A2:|
|:eaag egfg|eA~A2 edBe|d2BG AGEF|G2Bd ~g3f|
eaag egfg|eA~A2BAGE|GABd gedB|AcBG ABcd:|
|:ea~a2 aaga|bg~g2 abge|dggf ~g2ge|dB~B2 GABd|
eaag a2ga|bg~g2 abge|dgga gedB|AcBG ABcd:|

